!!!COM: Anon.
!!!OCL: Francis James Child
!!!OPR: The English and Scottish Popular Ballads
!!!OVM: Vol. 1
!!!ONB: Ballad No. 41, Tune No. 2
!!!ONM: No. 41
!!!PDT: 1882
!!!YEM: Public domain.
**kern
*M4/4
{4dd
=1
4a
4a
4g
4a
=2
4cc
4dd
4a}
!! Second phrase:
{4g
=3
4g
4a
4a
4cc
=4
2.dd}
!! Third phrase:
{8.ff
16ee
=5
4dd
4a
4.cc
8cc
=6
4.e
8d
4c}
!! Fourth phrase:
{8d
8e
=7
4g
4a
8g
4f
8e
=8
2.d}
====
*-
!!!OCY: Britain; England
!!!PPP: Boston
!!!ODT: <1882
!!!AFR: folk song
!!!AST: monophony
!!!AMT: simple quadruple
!!!SCA: Child Collection
!!!AIN: vox
!!!EEV: 1.0
!!!RDT: 1987 June
!!!YER: 1994 August 10
!!!VTS: 652652838
